;FLAVOR:UltiGCode
;TIME:8536      
;MATERIAL:20966     
;MATERIAL2:0         

;Layer count: 50
;LAYER:0
M107
G0 F9000 X99.62 Y34.58 Z0.30
;TYPE:SKIRT
G1 F1200 X106.19 Y28.01 E1.11480
G1 X122.83 Y28.01 E3.11280
G1 X122.83 Y30.01 E3.35280
G1 X128.46 Y30.01 E4.02720
G1 X128.46 Y35.63 E4.70148
G1 X130.46 Y35.63 E4.94148
G1 X130.46 Y52.28 E6.93960
G1 X123.89 Y58.85 E8.05439
G1 X107.23 Y58.85 E10.05251
G1 X107.23 Y56.85 E10.29251
G1 X101.62 Y56.85 E10.96679
G1 X101.62 Y51.23 E11.64119
G1 X99.62 Y51.23 E11.88119
G1 X99.62 Y34.58 E13.87919
G0 F9000 X100.02 Y34.75
G1 F1200 X106.35 Y28.41 E14.95428
G1 X122.44 Y28.41 E16.88436
G1 X122.44 Y30.41 E17.12436
G1 X128.06 Y30.41 E17.79876
G1 X128.06 Y36.03 E18.47304
G1 X130.06 Y36.03 E18.71304
G1 X130.06 Y52.12 E20.64324
G1 X123.72 Y58.45 E21.71832
G1 X107.64 Y58.45 E23.64852
G1 X107.64 Y56.45 E23.88852
G1 X102.02 Y56.45 E24.56280
G1 X102.02 Y50.83 E25.23720
G1 X100.02 Y50.83 E25.47720
G1 X100.02 Y34.75 E27.40728
G0 F9000 X100.42 Y34.91
G1 F1200 X106.52 Y28.81 E28.44266
G1 X122.03 Y28.81 E30.30482
G1 X122.03 Y30.81 E30.54482
G1 X127.66 Y30.81 E31.21922
G1 X127.66 Y36.43 E31.89350
G1 X129.66 Y36.43 E32.13350
G1 X129.66 Y51.95 E33.99578
G1 X123.55 Y58.05 E35.03115
G1 X108.03 Y58.05 E36.89343
G1 X108.03 Y56.05 E37.13343
G1 X102.42 Y56.05 E37.80771
G1 X102.42 Y50.43 E38.48211
G1 X100.42 Y50.43 E38.72211
G1 X100.42 Y34.91 E40.58427
G0 F9000 X100.82 Y35.08
G1 F1200 X106.68 Y29.21 E41.57976
G1 X121.64 Y29.21 E43.37412
G1 X121.64 Y31.21 E43.61412
G1 X127.25 Y31.21 E44.28852
G1 X127.25 Y36.83 E44.96280
G1 X129.25 Y36.83 E45.20280
G1 X129.25 Y51.79 E46.99728
G1 X123.39 Y57.65 E47.99278
G1 X108.44 Y57.65 E49.78726
G1 X108.44 Y55.65 E50.02726
G1 X102.82 Y55.65 E50.70154
G1 X102.82 Y50.03 E51.37594
G1 X100.82 Y50.03 E51.61594
G1 X100.82 Y35.08 E53.41030
G0 F9000 X101.22 Y35.24
G1 F1200 X106.85 Y29.61 E54.36608
G1 X121.23 Y29.61 E56.09252
G1 X121.23 Y31.61 E56.33252
G1 X126.86 Y31.61 E57.00692
G1 X126.86 Y37.23 E57.68120
G1 X128.85 Y37.23 E57.92120
G1 X128.85 Y51.62 E59.64776
G1 X123.22 Y57.25 E60.60354
G1 X108.83 Y57.25 E62.33010
G1 X108.83 Y55.25 E62.57010
G1 X103.22 Y55.25 E63.24438
G1 X103.22 Y49.63 E63.91878
G1 X101.22 Y49.63 E64.15878
G1 X101.22 Y35.24 E65.88522
G0 F9000 X101.62 Y35.41
G1 F1200 X107.01 Y30.01 E66.80129
G1 X120.83 Y30.01 E68.45981
G1 X120.83 Y32.01 E68.69981
G1 X126.45 Y32.01 E69.37421
G1 X126.45 Y37.63 E70.04849
G1 X128.46 Y37.63 E70.28849
G1 X128.46 Y51.45 E71.94713
G1 X123.06 Y56.85 E72.86320
G1 X109.23 Y56.85 E74.52184
G1 X109.23 Y54.85 E74.76184
G1 X103.62 Y54.85 E75.43612
G1 X103.62 Y49.23 E76.11052
G1 X101.62 Y49.23 E76.35052
G1 X101.62 Y35.41 E78.00904
G0 F9000 X102.02 Y35.58
G1 F1200 X107.18 Y30.41 E78.88523
G1 X120.44 Y30.41 E80.47595
G1 X120.44 Y32.41 E80.71595
G1 X126.06 Y32.41 E81.39035
G1 X126.06 Y38.03 E82.06463
G1 X128.06 Y38.03 E82.30463
G1 X128.06 Y51.29 E83.89547
G1 X122.89 Y56.45 E84.77166
G1 X109.64 Y56.45 E86.36250
G1 X109.64 Y54.45 E86.60250
G1 X104.02 Y54.45 E87.27678
G1 X104.02 Y48.83 E87.95118
G1 X102.02 Y48.83 E88.19118
G1 X102.02 Y35.58 E89.78190
G0 F9000 X102.42 Y35.74
G1 F1200 X107.34 Y30.81 E90.61838
G1 X120.03 Y30.81 E92.14118
G1 X120.03 Y32.81 E92.38118
G1 X125.66 Y32.81 E93.05558
G1 X125.66 Y38.43 E93.72986
G1 X127.66 Y38.43 E93.96986
G1 X127.66 Y51.12 E95.49278
G1 X122.73 Y56.05 E96.32926
G1 X110.03 Y56.05 E97.85218
G1 X110.03 Y54.05 E98.09218
G1 X104.42 Y54.05 E98.76646
G1 X104.42 Y48.43 E99.44086
G1 X102.42 Y48.43 E99.68086
G1 X102.42 Y35.74 E101.20366
G0 F9000 X102.82 Y35.91
G1 F1200 X107.51 Y31.21 E102.00043
G1 X119.64 Y31.21 E103.45531
G1 X119.64 Y33.21 E103.69531
G1 X125.25 Y33.21 E104.36971
G1 X125.25 Y38.83 E105.04399
G1 X127.25 Y38.83 E105.28399
G1 X127.25 Y50.96 E106.73899
G1 X122.56 Y55.65 E107.53576
G1 X110.44 Y55.65 E108.99076
G1 X110.44 Y53.65 E109.23076
G1 X104.82 Y53.65 E109.90504
G1 X104.82 Y48.03 E110.57944
G1 X102.82 Y48.03 E110.81944
G1 X102.82 Y35.91 E112.27432
G0 F9000 X103.22 Y36.07
G1 F1200 X107.68 Y31.61 E113.03120
G1 X119.23 Y31.61 E114.41828
G1 X119.23 Y33.61 E114.65828
G1 X124.86 Y33.61 E115.33268
G1 X124.86 Y39.23 E116.00696
G1 X126.86 Y39.23 E116.24696
G1 X126.86 Y50.79 E117.63416
G1 X122.39 Y55.25 E118.39105
G1 X110.83 Y55.25 E119.77825
G1 X110.83 Y53.25 E120.01825
G1 X105.22 Y53.25 E120.69253
G1 X105.22 Y47.63 E121.36693
G1 X103.22 Y47.63 E121.60693
G1 X103.22 Y36.07 E122.99401
G0 F9000 X103.62 Y36.24
G1 F1200 X107.84 Y32.01 E123.71119
G1 X118.83 Y32.01 E125.03035
G1 X118.83 Y34.01 E125.27035
G1 X124.45 Y34.01 E125.94475
G1 X124.45 Y39.63 E126.61903
G1 X126.45 Y39.63 E126.85903
G1 X126.45 Y50.63 E128.17831
G1 X122.23 Y54.85 E128.89548
G1 X111.23 Y54.85 E130.21476
G1 X111.23 Y52.85 E130.45476
G1 X105.62 Y52.85 E131.12904
G1 X105.62 Y47.23 E131.80344
G1 X103.62 Y47.23 E132.04344
G1 X103.62 Y36.24 E133.36260
G0 F9000 X104.02 Y36.41
G1 F1200 X108.01 Y32.41 E134.04007
G1 X118.44 Y32.41 E135.29131
G1 X118.44 Y34.41 E135.53131
G1 X124.06 Y34.41 E136.20571
G1 X124.06 Y40.03 E136.87999
G1 X126.06 Y40.03 E137.11999
G1 X126.06 Y50.46 E138.37135
G1 X122.06 Y54.45 E139.04881
G1 X111.64 Y54.45 E140.30017
G1 X111.64 Y52.45 E140.54017
G1 X106.02 Y52.45 E141.21445
G1 X106.02 Y46.83 E141.88885
G1 X104.02 Y46.83 E142.12885
G1 X104.02 Y36.41 E143.38009
G0 F9000 X104.42 Y36.57
G1 F1200 X108.17 Y32.81 E144.01768
G1 X118.03 Y32.81 E145.20112
G1 X118.03 Y34.81 E145.44112
G1 X123.66 Y34.81 E146.11552
G1 X123.66 Y40.43 E146.78980
G1 X125.66 Y40.43 E147.02980
G1 X125.66 Y50.30 E148.21336
G1 X121.90 Y54.05 E148.85094
G1 X112.03 Y54.05 E150.03450
G1 X112.03 Y52.05 E150.27450
G1 X106.42 Y52.05 E150.94878
G1 X106.42 Y46.43 E151.62318
G1 X104.42 Y46.43 E151.86318
G1 X104.42 Y36.57 E153.04662
G0 F9000 X104.82 Y36.74
G1 F1200 X108.34 Y33.21 E153.64449
G1 X117.64 Y33.21 E154.76001
G1 X117.64 Y35.21 E155.00001
G1 X123.25 Y35.21 E155.67441
G1 X123.25 Y40.83 E156.34869
G1 X125.25 Y40.83 E156.58869
G1 X125.25 Y50.13 E157.70433
G1 X121.73 Y53.65 E158.30221
G1 X112.44 Y53.65 E159.41785
G1 X112.44 Y51.65 E159.65785
G1 X106.82 Y51.65 E160.33213
G1 X106.82 Y46.03 E161.00653
G1 X104.82 Y46.03 E161.24653
G1 X104.82 Y36.74 E162.36205
G0 F9000 X105.22 Y36.90
G1 F1200 X108.50 Y33.61 E162.92021
G1 X117.23 Y33.61 E163.96781
G1 X117.23 Y35.61 E164.20781
G1 X122.86 Y35.61 E164.88221
G1 X122.86 Y41.23 E165.55649
G1 X124.86 Y41.23 E165.79649
G1 X124.86 Y49.96 E166.84421
G1 X121.57 Y53.25 E167.40237
G1 X112.83 Y53.25 E168.45009
G1 X112.83 Y51.25 E168.69009
G1 X107.22 Y51.25 E169.36437
G1 X107.22 Y45.63 E170.03877
G1 X105.22 Y45.63 E170.27877
G1 X105.22 Y36.90 E171.32637
G0 F9000 X105.62 Y37.07
G1 F1200 X108.67 Y34.01 E171.84465
G1 X116.83 Y34.01 E172.82445
G1 X116.83 Y36.01 E173.06445
G1 X122.45 Y36.01 E173.73885
G1 X122.45 Y41.63 E174.41313
G1 X124.45 Y41.63 E174.65313
G1 X124.45 Y49.80 E175.63305
G1 X121.40 Y52.85 E176.15133
G1 X113.23 Y52.85 E177.13125
G1 X113.23 Y50.85 E177.37125
G1 X107.62 Y50.85 E178.04553
G1 X107.62 Y45.23 E178.71993
G1 X105.62 Y45.23 E178.95993
G1 X105.62 Y37.07 E179.93973
G0 F9000 X106.02 Y37.23
G1 F1200 X108.84 Y34.41 E180.41830
G1 X116.44 Y34.41 E181.33018
G1 X116.44 Y36.41 E181.57018
G1 X122.06 Y36.41 E182.24458
G1 X122.06 Y42.03 E182.91886
G1 X124.06 Y42.03 E183.15886
G1 X124.06 Y49.63 E184.07086
G1 X121.23 Y52.45 E184.54943
G1 X113.64 Y52.45 E185.46143
G1 X113.64 Y50.45 E185.70143
G1 X108.02 Y50.45 E186.37571
G1 X108.02 Y44.83 E187.05011
G1 X106.02 Y44.83 E187.29011
G1 X106.02 Y37.23 E188.20199
G0 F9000 X106.42 Y37.40
G1 F1200 X109.00 Y34.81 E188.64085
G1 X116.03 Y34.81 E189.48481
G1 X116.03 Y36.81 E189.72481
G1 X121.66 Y36.81 E190.39921
G1 X121.66 Y42.43 E191.07349
G1 X123.66 Y42.43 E191.31349
G1 X123.66 Y49.47 E192.15757
G1 X121.07 Y52.05 E192.59643
G1 X114.03 Y52.05 E193.44051
G1 X114.03 Y50.05 E193.68051
G1 X108.42 Y50.05 E194.35479
G1 X108.42 Y44.43 E195.02919
G1 X106.42 Y44.43 E195.26919
G1 X106.42 Y37.40 E196.11315
G0 F9000 X106.82 Y37.56
G1 F1200 X109.17 Y35.21 E196.51213
G1 X115.64 Y35.21 E197.28829
G1 X115.64 Y37.21 E197.52829
G1 X121.25 Y37.21 E198.20269
G1 X121.25 Y42.83 E198.87697
G1 X123.25 Y42.83 E199.11697
G1 X123.25 Y49.30 E199.89325
G1 X120.90 Y51.65 E200.29223
G1 X114.44 Y51.65 E201.06851
G1 X114.44 Y49.65 E201.30851
G1 X108.82 Y49.65 E201.98279
G1 X108.82 Y44.03 E202.65719
G1 X106.82 Y44.03 E202.89719
G1 X106.82 Y37.56 E203.67335
G0 F9000 X107.22 Y37.73
G1 F1200 X109.33 Y35.61 E204.03261
G1 X115.23 Y35.61 E204.74085
G1 X115.23 Y37.61 E204.98085
G1 X120.86 Y37.61 E205.65525
G1 X120.86 Y43.23 E206.32953
G1 X122.86 Y43.23 E206.56953
G1 X122.86 Y49.13 E207.27789
G1 X120.74 Y51.25 E207.63716
G1 X114.83 Y51.25 E208.34552
G1 X114.83 Y49.25 E208.58552
G1 X109.22 Y49.25 E209.25980
G1 X109.22 Y43.63 E209.93420
G1 X107.22 Y43.63 E210.17420
G1 X107.22 Y37.73 E210.88244
G0 F9000 X108.02 Y38.06
;TYPE:WALL-INNER
G1 F1200 X109.66 Y36.41 E211.16211
G1 X114.44 Y36.41 E211.73463
G1 X114.44 Y38.41 E211.97463
G1 X120.06 Y38.41 E212.64903
G1 X120.06 Y44.03 E213.32331
G1 X122.06 Y44.03 E213.56331
G1 X122.06 Y48.80 E214.13595
G1 X120.41 Y50.45 E214.41563
G1 X115.64 Y50.45 E214.98827
G1 X115.64 Y48.45 E215.22827
G1 X110.02 Y48.45 E215.90255
G1 X110.02 Y42.83 E216.57695
G1 X108.02 Y42.83 E216.81695
G1 X108.02 Y38.06 E217.38947
G0 F9000 X107.62 Y37.90
;TYPE:WALL-OUTER
G1 F1200 X109.50 Y36.01 E217.70886
G1 X114.83 Y36.01 E218.34930
G1 X114.83 Y38.01 E218.58930
G1 X120.45 Y38.01 E219.26370
G1 X120.45 Y43.63 E219.93798
G1 X122.45 Y43.63 E220.17798
G1 X122.45 Y48.97 E220.81854
G1 X120.57 Y50.85 E221.13792
G1 X115.23 Y50.85 E221.77848
G1 X115.23 Y48.85 E222.01848
G1 X109.62 Y48.85 E222.69276
G1 X109.62 Y43.23 E223.36716
G1 X107.62 Y43.23 E223.60716
G1 X107.62 Y37.90 E224.24760
G0 F9000 X108.16 Y38.29
;TYPE:FILL
G1 F1200 X120.17 Y50.31 E226.28729
G0 F9000 X120.54 Y50.12
G1 F1200 X108.35 Y37.92 E228.35668
G0 F9000 X108.63 Y37.64
G1 F1200 X120.83 Y49.83 E230.42607
G0 F9000 X121.11 Y49.55
G1 F1200 X108.92 Y37.36 E232.49546
G0 F9000 X109.20 Y37.07
G1 F1200 X121.39 Y49.27 E234.56486
G0 F9000 X121.68 Y48.98
G1 F1200 X109.48 Y36.79 E236.63425
G0 F9000 X109.81 Y36.55
G1 F1200 X121.91 Y48.66 E238.68853
G0 F9000 X121.91 Y48.09
G1 F1200 X110.38 Y36.55 E240.64677
G0 F9000 X110.94 Y36.55
G1 F1200 X121.91 Y47.53 E242.50903
G0 F9000 X121.91 Y46.96
G1 F1200 X111.51 Y36.55 E244.27533
G0 F9000 X112.07 Y36.55
G1 F1200 X121.91 Y46.40 E245.94557
G0 F9000 X121.91 Y45.83
G1 F1200 X120.26 Y44.17 E246.22686
G0 F9000 X119.91 Y43.83
G1 F1200 X114.64 Y38.55 E247.12248
G0 F9000 X114.29 Y38.21
G1 F1200 X112.64 Y36.55 E247.40351
G0 F9000 X113.20 Y36.55
G1 F1200 X114.29 Y37.64 E247.58849
G0 F9000 X114.29 Y37.08
G1 F1200 X113.77 Y36.55 E247.67742
G0 F9000 X114.49 Y38.35
G0 X115.20 Y38.55
G1 F1200 X119.91 Y43.26 E248.47698
G0 F9000 X119.91 Y42.70
G1 F1200 X115.77 Y38.55 E249.18058
G0 F9000 X116.33 Y38.55
G1 F1200 X119.91 Y42.13 E249.78813
G0 F9000 X119.91 Y41.57
G1 F1200 X116.90 Y38.55 E250.29971
G0 F9000 X117.47 Y38.55
G1 F1200 X119.91 Y41.00 E250.71532
G0 F9000 X119.91 Y40.44
G1 F1200 X118.03 Y38.55 E251.03487
G0 F9000 X118.60 Y38.55
G1 F1200 X119.91 Y39.87 E251.25846
G0 F9000 X119.91 Y39.30
G1 F1200 X119.16 Y38.55 E251.38599
G0 F9000 X119.73 Y38.55
G1 F1200 X119.91 Y38.74 E251.41756
G0 F9000 X120.11 Y43.97
G0 X120.82 Y44.17
G1 F1200 X121.91 Y45.26 E251.60288
G0 F9000 X121.91 Y44.70
G1 F1200 X121.39 Y44.17 E251.69214
G0 F9000 X119.61 Y50.31
G1 F1200 X108.16 Y38.86 E253.63578
G0 F9000 X108.16 Y39.42
G1 F1200 X119.04 Y50.31 E255.48345
G0 F9000 X118.48 Y50.31
G1 F1200 X108.16 Y39.99 E257.23515
G0 F9000 X108.16 Y40.56
G1 F1200 X117.91 Y50.31 E258.89080
G0 F9000 X117.34 Y50.31
G1 F1200 X115.77 Y48.74 E259.15749
G0 F9000 X115.77 Y49.31
G1 F1200 X116.78 Y50.31 E259.32822
G0 F9000 X116.21 Y50.31
G1 F1200 X115.77 Y49.87 E259.40289
G0 F9000 X115.34 Y48.31
G1 F1200 X110.16 Y43.12 E260.28366
G0 F9000 X110.16 Y43.69
G1 F1200 X114.78 Y48.31 E261.06838
G0 F9000 X114.21 Y48.31
G1 F1200 X110.16 Y44.25 E261.75721
G0 F9000 X110.16 Y44.82
G1 F1200 X113.65 Y48.31 E262.34999
G0 F9000 X113.08 Y48.31
G1 F1200 X110.16 Y45.38 E262.84672
G0 F9000 X110.16 Y45.95
G1 F1200 X112.52 Y48.31 E263.24748
G0 F9000 X111.95 Y48.31
G1 F1200 X110.16 Y46.52 E263.55227
G0 F9000 X110.16 Y47.08
G1 F1200 X111.39 Y48.31 E263.76101
G0 F9000 X110.82 Y48.31
G1 F1200 X110.16 Y47.65 E263.87378
G0 F9000 X110.16 Y48.21
G1 F1200 X110.25 Y48.31 E263.89058
G0 F9000 X109.96 Y42.89
G0 X109.72 Y42.69
G1 F1200 X108.16 Y41.12 E264.15702
G0 F9000 X108.16 Y41.69
G1 F1200 X109.16 Y42.69 E264.32740
G0 F9000 X108.59 Y42.69
G1 F1200 X108.16 Y42.25 E264.40174
;LAYER:1
M106 S255
G0 F9000 X108.02 Y42.83 Z0.50
;TYPE:WALL-INNER
G1 F1620 X108.02 Y38.06 E264.78342
G1 X109.66 Y36.41 E264.96986
G1 X114.44 Y36.41 E265.35154
G1 X114.44 Y38.41 E265.51154
G1 X120.06 Y38.41 E265.96114
G1 X120.06 Y44.03 E266.41066
G1 X122.06 Y44.03 E266.57066
G1 X122.06 Y48.80 E266.95242
G1 X120.41 Y50.45 E267.13887
G1 X115.64 Y50.45 E267.52063
G1 X115.64 Y48.45 E267.68063
G1 X110.02 Y48.45 E268.13015
G1 X110.02 Y42.83 E268.57975
G1 X108.02 Y42.83 E268.73975
G0 F9000 X107.62 Y43.23
;TYPE:WALL-OUTER
G1 F1620 X107.62 Y37.90 E269.16671
G1 X109.50 Y36.01 E269.37964
G1 X114.83 Y36.01 E269.80660
G1 X114.83 Y38.01 E269.96660
G1 X120.45 Y38.01 E270.41620
G1 X120.45 Y43.63 E270.86572
G1 X122.45 Y43.63 E271.02572
G1 X122.45 Y48.97 E271.45276
G1 X120.57 Y50.85 E271.66568
G1 X115.23 Y50.85 E272.09272
G1 X115.23 Y48.85 E272.25272
G1 X109.62 Y48.85 E272.70224
G1 X109.62 Y43.23 E273.15184
G1 X107.62 Y43.23 E273.31184
G0 F9000 X108.16 Y42.60
;TYPE:FILL
G1 F1620 X114.20 Y36.55 E273.99587
G0 F9000 X114.29 Y37.03
G1 F1620 X108.63 Y42.69 E274.63673
G0 F9000 X109.19 Y42.69
G1 F1620 X114.29 Y37.59 E275.21362
G0 F9000 X114.29 Y38.16
G1 F1620 X109.76 Y42.69 E275.72647
G0 F9000 X110.16 Y42.86
G1 F1620 X114.47 Y38.55 E276.21409
G0 F9000 X115.03 Y38.55
G1 F1620 X110.16 Y43.43 E276.76569
G0 F9000 X110.16 Y43.99
G1 F1620 X115.60 Y38.55 E277.38133
G0 F9000 X116.16 Y38.55
G1 F1620 X110.16 Y44.56 E278.06094
G0 F9000 X110.16 Y45.12
G1 F1620 X116.73 Y38.55 E278.80454
G0 F9000 X117.29 Y38.55
G1 F1620 X110.16 Y45.69 E279.61216
G0 F9000 X110.16 Y46.26
G1 F1620 X117.86 Y38.55 E280.48377
G0 F9000 X118.42 Y38.55
G1 F1620 X110.16 Y46.82 E281.41936
G0 F9000 X110.16 Y47.39
G1 F1620 X118.99 Y38.55 E282.41898
G0 F9000 X119.56 Y38.55
G1 F1620 X110.16 Y47.95 E283.48258
G0 F9000 X110.36 Y48.31
G1 F1620 X119.91 Y38.76 E284.56321
G0 F9000 X119.91 Y39.33
G1 F1620 X110.93 Y48.31 E285.57981
G0 F9000 X111.49 Y48.31
G1 F1620 X119.91 Y39.89 E286.53242
G0 F9000 X119.91 Y40.46
G1 F1620 X112.06 Y48.31 E287.42106
G0 F9000 X112.62 Y48.31
G1 F1620 X119.91 Y41.02 E288.24566
G0 F9000 X119.91 Y41.59
G1 F1620 X113.19 Y48.31 E289.00628
G0 F9000 X113.76 Y48.31
G1 F1620 X119.91 Y42.15 E289.70292
G0 F9000 X119.91 Y42.72
G1 F1620 X114.32 Y48.31 E290.33552
G0 F9000 X114.89 Y48.31
G1 F1620 X119.91 Y43.29 E290.90415
G0 F9000 X119.91 Y43.85
G1 F1620 X115.45 Y48.31 E291.40880
G0 F9000 X115.77 Y48.56
G1 F1620 X120.16 Y44.17 E291.90490
G0 F9000 X120.72 Y44.17
G1 F1620 X115.77 Y49.12 E292.46499
G0 F9000 X115.77 Y49.69
G1 F1620 X121.29 Y44.17 E293.08905
G0 F9000 X121.86 Y44.17
G1 F1620 X115.77 Y50.25 E293.77715
G0 F9000 X116.28 Y50.31
G1 F1620 X121.91 Y44.68 E294.41440
G0 F9000 X121.91 Y45.24
G1 F1620 X116.85 Y50.31 E294.98766
G0 F9000 X117.41 Y50.31
G1 F1620 X121.91 Y45.81 E295.49689
G0 F9000 X121.91 Y46.38
G1 F1620 X117.98 Y50.31 E295.94209
G0 F9000 X118.55 Y50.31
G1 F1620 X121.91 Y46.94 E296.32330
G0 F9000 X121.91 Y47.51
G1 F1620 X119.11 Y50.31 E296.64054
G0 F9000 X119.68 Y50.31
G1 F1620 X121.91 Y48.07 E296.89374
G0 F9000 X121.91 Y48.64
G1 F1620 X120.24 Y50.31 E297.08296
G0 F9000 X109.96 Y42.89
G0 X108.16 Y42.03
G1 F1620 X113.64 Y36.55 E297.70301
G0 F9000 X113.07 Y36.55
G1 F1620 X108.16 Y41.47 E298.25908
G0 F9000 X108.16 Y40.90
G1 F1620 X112.50 Y36.55 E298.75111
G0 F9000 X111.94 Y36.55
G1 F1620 X108.16 Y40.34 E299.17917
G0 F9000 X108.16 Y39.77
G1 F1620 X111.37 Y36.55 E299.54324
G0 F9000 X110.81 Y36.55
G1 F1620 X108.16 Y39.20 E299.84328
G0 F9000 X108.16 Y38.64
G1 F1620 X110.24 Y36.55 E300.07934
;LAYER:2
